X: 4441
T: "BUGLE" GALOP
R: Galop.
%R: galop, polka
B: James Kerr "Merry Melodies" v.4 p.50 #441
Z: 2016 John Chambers <jc:trillian.mit.edu>
M: 2/4
L: 1/16
K: A
|: !f!\
E2EE A2EA | c2Ac e4 |\
e2dc B4 | d2cB A4 |\
E2EE A2EA | c2Ac e4 |\
[1 B2^dc BAGF | E2z2 e2z2 :|\
[2 e2(gf) edcB | A2z2 [a2c2]z2 H|:\
B4 e4 | B4 e4 |
e2c2e2c2 | A2E2A2E2 |\
B4 e4 | B4 e4 |\
[1 f2B2f2B2 | e2ee e2e2 :|\
[2 e2dc B2cB | A2z2 [a2c2]"_D.C."z2 |]\
"Trio."\
[K:D]\
|:\
d6 AA | d6 AA |\
d2A2F2A2 | d2A2d2f2 |
e2AA A4 | f2dd d4 |\
e2B2c2d2 | f2e2c2A2 |\
d6 AA | d6 AA |\
d2A2F2A2 | d2A2d2f2 |\
e2AA A2A2 | f2dd d2d2 |\
e2AA A2a2 |[1 d2A2B2c2 :|[2 d2z2 [d2F2]z2 |]

%%sep 1 1 500
%%sep 1 1 500

